svgs/icons/lg/passport.svg

<svg xmlns="http://www.w3.org/2000/svg" viewBox="0 0 24 24" enable-background="new 0 0 24 24"><path fill="#34363D" d="M16 2h-11.5c-.3 0-.5.2-.5.5v19c0 .3.2.5.5.5h11.5c1.1 0 2-.9 2-2v-16c0-1.1-.9-2-2-2zm-5 15c-1.7 0-3-1.3-3-3s1.3-3 3-3 3 1.3 3 3-1.3 3-3 3zm-2-9v-1h4v1h-4zm5-2h-6v-1h6v1zm6-2v16c0 1.1-.9 2-2 2 0-.2.1-.3.2-.4.5-.4.8-.9.8-1.6v-16c0-.6-.3-1.2-.8-1.6-.1-.1-.2-.2-.2-.4 1.1 0 2 .9 2 2z"/></svg>

<svg xmlns="http://www.w3.org/2000/svg" viewBox="0 0 24 24"><path fill="#34363D" d="M16 2H4.5c-.3 0-.5.2-.5.5v19c0 .3.2.5.5.5H16c1.1 0 2-.9 2-2V4c0-1.1-.9-2-2-2zm-5 15c-1.7 0-3-1.3-3-3s1.3-3 3-3 3 1.3 3 3-1.3 3-3 3zM9 8V7h4v1H9zm5-2H8V5h6v1zm6-2v16c0 1.1-.9 2-2 2 0-.2.1-.3.2-.4.5-.4.8-.9.8-1.6V4c0-.6-.3-1.2-.8-1.6-.1-.1-.2-.2-.2-.4 1.1 0 2 .9 2 2z"/></svg>
